logo/oauth.svg

<?xml version="1.0" encoding="UTF-8" standalone="no"?>
<svg width="256px" height="256px" viewBox="0 0 256 256" version="1.1" xmlns="http://www.w3.org/2000/svg" xmlns:xlink="http://www.w3.org/1999/xlink" preserveAspectRatio="xMidYMid">
	<g>
		<path d="M118.922624,0.37140771 C175.483691,-3.5505123 212.986837,24.1282078 234.430251,57.8515157 C245.182251,74.7603157 255.731584,100.441382 255.780224,126.827729 C255.832277,155.497169 246.544597,180.324476 234.430251,198.541009 C221.979264,217.264422 205.875157,232.728956 185.709184,242.883196 C151.999957,259.857276 104.889984,260.321489 74.033024,243.978022 C39.6684361,225.777276 13.2466761,199.798822 3.41456926,154.746662 C-0.520150741,136.717436 -0.972417408,113.421862 4.50939593,93.4346624 C5.79579605,88.7460224 8.13350272,83.8116224 9.98395605,79.2014891 C18.8765427,57.0472491 34.0125427,37.7823945 52.6834773,24.4580211 C60.185984,19.1042078 69.2876373,13.7794078 77.3179307,10.2248478 C87.3096107,5.80244779 104.132224,1.3966877 118.922624,0.37140771 L118.922624,0.37140771 Z" fill="#FFFFFF"></path>
		<path d="M226.211797,130.015782 C226.211797,183.471996 182.876971,226.803836 129.421611,226.803836 C75.9662507,226.803836 32.6322761,183.471996 32.6322761,130.015782 C32.6322761,76.5608491 75.9662507,33.2255945 129.421611,33.2255945 C182.876544,33.2255945 226.211797,76.5608491 226.211797,130.015782 L226.211797,130.015782 Z" fill="#000000"></path>
		<path d="M118.922624,0.37140771 C175.483691,-3.5505123 212.986837,24.1282078 234.430251,57.8515157 C245.182251,74.7603157 255.731584,100.441382 255.780224,126.827729 C255.832277,155.497169 246.544597,180.324476 234.430251,198.541009 C221.979264,217.264422 205.875157,232.728956 185.709184,242.883196 C151.999957,259.857276 104.889984,260.321489 74.033024,243.978022 C39.6684361,225.777276 13.2466761,199.798822 3.41456926,154.746662 C-0.520150741,136.717436 -0.972417408,113.421862 4.50939593,93.4346624 C5.79579605,88.7460224 8.13350272,83.8116224 9.98395605,79.2014891 C18.8765427,57.0472491 34.0125427,37.7823945 52.6834773,24.4580211 C60.185984,19.1042078 69.2876373,13.7794078 77.3179307,10.2248478 C87.3096107,5.80244779 104.132224,1.3966877 118.922624,0.37140771 L118.922624,0.37140771 Z M99.762304,9.67786112 C78.753664,15.1246878 63.3497173,24.8829811 49.9464107,35.4071411 C30.6188361,50.5828224 18.2975561,71.7604224 11.0787827,97.2665557 C3.04763593,125.643302 8.20646272,159.982289 19.2904094,181.570769 C30.7843827,203.958822 46.217344,221.337382 68.0114773,233.576742 C89.2146773,245.484156 119.036971,253.130022 150.126464,247.262502 C177.748864,242.049489 198.727637,230.016209 215.818197,212.226769 C238.684117,188.425169 257.061931,144.585596 244.832384,98.3613824 C241.563264,86.0072491 237.289344,73.1313024 230.598784,62.2308224 C226.984064,56.3419691 221.679744,50.5486891 216.365611,44.7131691 C196.309717,22.6882078 163.894571,3.70879437 122.207104,6.39295445 C114.273664,6.90367445 107.301504,7.72287445 99.762304,9.67786112 L99.762304,9.67786112 Z" fill="#000000"></path>
		<g transform="translate(7.680000, 9.386667)" fill="#FFFFFF">
			<g transform="translate(0.000000, 2.986667)">
				<path d="M127.896362,234.025436 L239.741909,122.182449 L239.138518,121.579044 L127.292971,233.422031 L127.896362,234.025436 L127.896362,234.025436 Z"></path>
				<path d="M118.118869,225.167835 L230.452096,112.836742 L229.848704,112.233338 L117.515477,224.564432 L118.118869,225.167835 L118.118869,225.167835 Z"></path>
				<path d="M108.34095,216.311515 L221.16271,103.491461 L220.559317,102.888059 L107.737557,215.708112 L108.34095,216.311515 L108.34095,216.311515 Z"></path>
				<path d="M98.5630294,207.453915 L211.872896,94.1461817 L211.269504,93.5427783 L97.9596373,206.850512 L98.5630294,207.453915 L98.5630294,207.453915 Z"></path>
				<path d="M88.7855366,198.596741 L202.58351,84.8004745 L201.980117,84.1970722 L88.1821434,197.993339 L88.7855366,198.596741 L88.7855366,198.596741 Z"></path>
				<path d="M79.00762,189.741698 L193.293273,75.4551911 L192.689873,74.8517956 L78.40422,189.138302 L79.00762,189.741698 L79.00762,189.741698 Z"></path>
				<path d="M69.2296967,180.882394 L184.003883,66.1099145 L183.40049,65.5065122 L68.6263033,180.278992 L69.2296967,180.882394 L69.2296967,180.882394 Z"></path>
				<path d="M59.4517778,172.02522 L174.713644,56.7642067 L174.110249,56.1608067 L58.8483822,171.42182 L59.4517778,172.02522 L59.4517778,172.02522 Z"></path>
				<path d="M49.6738606,163.168044 L165.421701,47.4189239 L164.818299,46.8155294 L49.0704594,162.564649 L49.6738606,163.168044 L49.6738606,163.168044 Z"></path>
				<path d="M39.8963639,154.310447 L156.134444,38.0736472 L155.531049,37.4702461 L39.2929694,153.707046 L39.8963639,154.310447 L39.8963639,154.310447 Z"></path>
				<path d="M30.1184445,145.4537 L146.844631,28.7283667 L146.241236,28.1249667 L29.5150489,144.8503 L30.1184445,145.4537 L30.1184445,145.4537 Z"></path>
				<path d="M20.3405245,136.596527 L137.555244,19.38266 L136.951849,18.77926 L19.7371289,135.993127 L20.3405245,136.596527 L20.3405245,136.596527 Z"></path>
				<path d="M10.5626039,127.738927 L128.265431,10.0373805 L127.662036,9.43397947 L9.95920941,127.135526 L10.5626039,127.738927 L10.5626039,127.738927 Z"></path>
				<path d="M0.784683926,118.881754 L118.975617,0.692100527 L118.372223,0.088699473 L0.181289407,118.278353 L0.784683926,118.881754 L0.784683926,118.881754 Z"></path>
			</g>
			<g>
				<path d="M0.14330767,122.999079 L114.223734,237.084625 L114.827146,236.481241 L0.746718997,122.395695 L0.14330767,122.999079 L0.14330767,122.999079 Z"></path>
				<path d="M9.39472045,113.615398 L123.697014,227.923238 L124.300426,227.319855 L9.99813288,113.012015 L9.39472045,113.615398 L9.39472045,113.615398 Z"></path>
				<path d="M18.6461344,104.231719 L133.170294,218.760999 L133.773706,218.157615 L19.2495456,103.628335 L18.6461344,104.231719 L18.6461344,104.231719 Z"></path>
				<path d="M27.8975477,94.8480388 L142.644001,209.599612 L143.247412,208.996228 L28.500959,94.2446545 L27.8975477,94.8480388 L27.8975477,94.8480388 Z"></path>
				<path d="M37.1485349,85.4643594 L152.116855,200.437373 L152.720265,199.833987 L37.7519451,84.8609739 L37.1485349,85.4643594 L37.1485349,85.4643594 Z"></path>
				<path d="M46.3999494,76.0806805 L161.590989,191.275561 L162.194397,190.672173 L47.0033573,75.4772928 L46.3999494,76.0806805 L46.3999494,76.0806805 Z"></path>
				<path d="M55.6513628,66.6970005 L171.064269,182.113747 L171.667677,181.510359 L56.2547706,66.0936128 L55.6513628,66.6970005 L55.6513628,66.6970005 Z"></path>
				<path d="M64.9023505,57.3133217 L180.537551,172.951508 L181.140956,172.348118 L65.5057561,56.7099317 L64.9023505,57.3133217 L64.9023505,57.3133217 Z"></path>
				<path d="M74.1537644,47.9296422 L190.011258,163.789696 L190.614662,163.186304 L74.7571689,47.3262511 L74.1537644,47.9296422 L74.1537644,47.9296422 Z"></path>
				<path d="M83.4051783,38.5459628 L199.484112,154.627029 L200.087515,154.023637 L84.0085817,37.9425705 L83.4051783,38.5459628 L83.4051783,38.5459628 Z"></path>
				<path d="M92.6565911,29.1622822 L208.957818,145.466069 L209.561222,144.862678 L93.2599955,28.5588911 L92.6565911,29.1622822 L92.6565911,29.1622822 Z"></path>
				<path d="M101.907579,19.7786034 L218.431099,136.30383 L219.034501,135.700437 L102.510981,19.17521 L101.907579,19.7786034 L101.907579,19.7786034 Z"></path>
				<path d="M111.158992,10.39535 L227.904379,127.142443 L228.507781,126.53905 L111.762394,9.79195665 L111.158992,10.39535 L111.158992,10.39535 Z"></path>
				<path d="M120.410833,1.01167058 L237.378086,117.980204 L237.981487,117.376809 L121.014234,0.408276091 L120.410833,1.01167058 L120.410833,1.01167058 Z"></path>
			</g>
		</g>
		<path d="M209.796224,45.2605824 C199.729877,35.1942345 187.353984,26.1233011 172.570837,20.6261278 C157.247531,14.9279945 139.913771,10.1250078 119.470037,11.8670878 C86.9042773,14.6429811 64.0392107,29.2541811 46.661504,46.3554091 C34.4895561,58.3332224 25.3337161,73.0109824 19.2899827,90.1497557 C10.4161694,115.314982 10.9546227,145.018236 20.9322227,170.622076 C29.4429427,192.461862 43.3727573,210.077222 63.0843307,223.722876 C81.6148907,236.551462 108.210731,246.500902 138.082091,243.978022 C174.464811,240.905169 201.085397,222.239356 218.554411,200.731089 C223.024171,195.228796 227.468331,189.009276 230.050091,181.571196 C232.579797,176.211836 233.817984,172.568529 234.977237,170.622502 C239.829291,159.750182 242.399957,148.278822 243.188437,135.587196 C245.614037,96.5506091 230.594517,66.0593024 209.796224,45.2605824 L209.796224,45.2605824 Z M199.073664,164.193062 C199.004117,164.341542 198.941824,164.479782 198.869291,164.632956 C197.064491,169.797756 193.955371,174.116476 190.830464,177.937702 C178.613291,192.872742 159.998251,205.834022 134.555264,207.968209 C113.665237,209.719249 95.0664107,202.811089 82.1081173,193.903142 C70.8475307,186.162129 62.287744,176.580049 56.2853973,165.064316 C55.9193173,164.371409 52.4334507,156.340262 52.4232107,155.986982 C47.6680107,141.237542 47.255424,117.520849 52.136064,103.288529 C55.3932373,93.7896491 60.8217173,83.5121024 68.0114773,75.3695957 C77.938304,64.1265024 87.872384,56.9222357 103.594624,51.8299691 C110.773291,49.5046357 117.199744,47.1379157 126.038997,46.9032491 C147.594197,46.3293824 169.544064,56.0074624 181.329451,66.6105557 C192.159957,76.3543424 204.503424,95.3346091 207.606571,113.141969 C210.800171,131.470289 207.391957,149.365116 199.073664,164.193062 L199.073664,164.193062 Z" fill="#000000"></path>
		<g transform="translate(83.626667, 76.373333)">
			<path d="M77.9810133,105.400747 C72.67328,105.400747 68.01536,102.039467 66.38976,97.0363733 L60.4778667,79.02336 L30.9034667,79.02336 L25.41056,96.8721067 C23.7525333,101.97248 19.0592,105.386667 13.72416,105.386667 C12.4433067,105.386667 11.1709867,105.184 9.94261333,104.785493 C3.56565333,102.87104 -0.0546133333,96.0072533 1.89909333,89.49376 L26.8616533,10.4226133 C28.48256,5.39264 33.2544,1.88416 38.4669867,1.88416 L51.7405867,1.88416 C56.9826133,1.88416 61.7540267,5.33290667 63.34336,10.2711467 L89.5957333,89.3128533 C91.6949333,95.7751467 88.21888,102.71232 81.8513067,104.785067 C80.5922133,105.193813 79.2904533,105.400747 77.9810133,105.400747 L77.9810133,105.400747 L77.9810133,105.400747 Z" fill="#FFFFFF"></path>
			<path d="M77.9810133,103.69408 C73.2261841,103.69408 69.0608465,100.688308 67.6071126,96.2141657 L61.6940408,78.1975435 L61.4049446,77.3166933 L60.4778667,77.3166933 L30.9034667,77.3166933 L29.958141,77.3166933 L29.6800885,78.2202018 L24.1871818,96.0689485 C22.7072691,100.620899 18.5067226,103.68 13.72416,103.68 C12.5787502,103.68 11.4396612,103.498823 10.3376028,103.141295 C4.61174908,101.421988 1.37421306,95.2722447 3.12512866,89.4348397 L28.0822714,10.3812927 C29.5308212,5.88624847 33.8113885,2.73749333 38.4669867,2.73749333 L51.7405867,2.73749333 C56.4288544,2.73749333 60.7065138,5.82950865 62.1249103,10.2366284 L88.3809821,89.2896459 C90.2599306,95.0739946 87.1485772,101.287946 81.4551086,103.141261 C80.3246516,103.508247 79.1562581,103.69408 77.9810133,103.69408 L77.9810133,103.69408 Z M77.9810133,106.25408 C79.4253475,106.25408 80.8604464,106.025828 82.2465357,105.575854 C89.2922648,103.282357 93.1289211,95.6198406 90.8131148,88.4907346 L64.5581113,9.4410208 C62.8016101,3.98319054 57.536605,0.177493333 51.7405867,0.177493333 L38.4669867,0.177493333 C32.6951659,0.177493333 27.4336011,4.04786331 25.6433485,9.60334848 L0.678475274,88.6817473 C-1.48096359,95.8806734 2.51145487,103.464326 9.57456724,105.584772 C10.9041173,106.016429 12.3097398,106.24 13.72416,106.24 C19.6168848,106.24 24.7994128,102.465759 26.6278552,96.8411577 L32.1268448,78.9731849 L30.9034667,79.8766933 L60.4778667,79.8766933 L59.2616926,78.9958432 L65.1735859,97.0088565 C66.9698962,102.537361 72.1204498,106.25408 77.9810133,106.25408 L77.9810133,106.25408 Z" fill="#000000"></path>
		</g>
		<g transform="translate(61.440000, 19.200000)" fill="#FFFFFF">
			<path d="M2.13376,33.8577067 L2.10261333,33.8154667 C-1.01034667,29.5492267 -0.0968533333,23.5810133 4.48768,20.2350933 C9.07221333,16.8896 14.9614933,17.8286933 18.0744533,22.0945067 L18.1056,22.1367467 C21.21856,26.4029867 20.3050667,32.3716267 15.7205333,35.71712 C11.136,39.0626133 5.24672,38.1239467 2.13376,33.8577067 L2.13376,33.8577067 Z M13.93408,25.2462933 L13.9029333,25.2040533 C12.3387733,23.06048 9.42634667,22.3232 7.15562667,23.9803733 C4.90581333,25.6221867 4.73088,28.5469867 6.29504,30.6909867 L6.32618667,30.7332267 C7.89077333,32.8768 10.8027733,33.61408 13.0525867,31.9722667 C15.3237333,30.3150933 15.4986667,27.3902933 13.93408,25.2462933 L13.93408,25.2462933 Z"></path>
			<path d="M32.1467733,5.89525333 L36.8251733,4.39424 L49.94048,19.6407467 L44.7364267,21.3102933 L42.4571733,18.5924267 L35.70176,20.7598933 L35.4542933,24.2888533 L30.3505067,25.9264 L32.1467733,5.89525333 L32.1467733,5.89525333 Z M39.84384,15.264 L36.2948267,10.9111467 L35.91552,16.5243733 L39.84384,15.264 L39.84384,15.264 Z"></path>
			<path d="M58.3658667,10.48192 L58.4068267,0.155306667 L63.5831467,0.175786667 L63.5426133,10.39744 C63.5319467,13.0513067 64.8669867,14.3176533 66.9166933,14.3261867 C68.9664,14.3342933 70.3112533,13.1310933 70.3210667,10.55616 L70.3624533,0.20352 L75.5387733,0.224 L75.49824,10.4192 C75.4747733,16.3575467 72.0750933,18.9457067 66.8458667,18.9248 C61.6170667,18.9034667 58.3432533,16.2363733 58.3658667,10.48192 L58.3658667,10.48192 Z"></path>
			<path d="M94.2331733,8.67754667 L88.95616,7.06688 L90.2600533,2.79466667 L105.6896,7.50378667 L104.385707,11.776 L99.1086933,10.16576 L95.04384,23.4845867 L90.1687467,21.9968 L94.2331733,8.67754667 L94.2331733,8.67754667 Z"></path>
			<path d="M119.471787,13.4651733 L123.715413,16.28928 L119.901867,22.0202667 L125.348693,25.6452267 L129.162667,19.9138133 L133.406293,22.73792 L123.216213,38.05056 L118.97216,35.2264533 L122.844587,29.4075733 L117.397333,25.7826133 L113.525333,31.6014933 L109.281707,28.7773867 L119.471787,13.4651733 L119.471787,13.4651733 Z"></path>
		</g>
		<g transform="translate(65.280000, 196.266667)" fill="#FFFFFF">
			<path d="M130.622293,3.79008 L130.65472,3.83146667 C133.92896,7.97568 133.243733,13.9754667 128.790187,17.49376 C124.33664,21.0120533 118.41536,20.2986667 115.14112,16.1544533 L115.108693,16.1130667 C111.834453,11.9684267 112.520107,5.96906667 116.973227,2.45077333 C121.426773,-1.06709333 127.348053,-0.354133333 130.622293,3.79008 L130.622293,3.79008 Z M119.158187,12.8469333 L119.190613,12.88832 C120.83584,14.97088 123.774293,15.5963733 125.980587,13.85344 C128.165973,12.12672 128.229547,9.19722667 126.583893,7.11466667 L126.551467,7.07328 C124.906667,4.99072 121.967787,4.36522667 119.7824,6.09194667 C117.576107,7.83488 117.51296,10.7643733 119.158187,12.8469333 L119.158187,12.8469333 Z"></path>
			<path d="M101.84832,32.9309867 L97.24032,34.6363733 L83.4666667,19.98208 L88.5922133,18.0846933 L90.9892267,20.70016 L97.6426667,18.23744 L97.7344,14.7012267 L102.761387,12.8405333 L101.84832,32.9309867 L101.84832,32.9309867 Z M93.7463467,23.9104 L97.48352,28.1024 L97.61536,22.47808 L93.7463467,23.9104 L93.7463467,23.9104 Z"></path>
			<path d="M75.4722133,29.4336 L75.9274667,39.7499733 L70.7562667,39.97824 L70.30528,29.7668267 C70.1883733,27.11552 68.7940267,25.91488 66.7464533,26.0053333 C64.69888,26.0957867 63.4133333,27.36256 63.5268267,29.9349333 L63.98336,40.2773333 L58.81216,40.5056 L58.3624533,30.32064 C58.10048,24.3882667 61.37216,21.63968 66.59584,21.40928 C71.8199467,21.1784533 75.2183467,23.6846933 75.4722133,29.4336 L75.4722133,29.4336 Z"></path>
			<path d="M39.5396267,32.8068267 L44.8674133,34.24512 L43.70304,38.5578667 L28.1250133,34.3530667 L29.2893867,30.0398933 L34.6171733,31.4781867 L38.2468267,18.03136 L43.1688533,19.36 L39.5396267,32.8068267 L39.5396267,32.8068267 Z"></path>
			<path d="M14.3573333,29.0594133 L9.98442667,26.4388267 L13.5236267,20.5333333 L7.91168,17.1694933 L4.37248,23.0749867 L0,20.4544 L9.45664,4.67669333 L13.82912,7.29770667 L10.2357333,13.2932267 L15.8481067,16.6570667 L19.4414933,10.6615467 L23.8139733,13.28256 L14.3573333,29.0594133 L14.3573333,29.0594133 Z"></path>
		</g>
	</g>
</svg>

<svg viewBox="0 0 256 256" xmlns="http://www.w3.org/2000/svg"><path fill="#FFF" d="M118.92.37c56.56-3.93 94.06 23.75 115.5 57.48 10.75 16.9 21.3 42.58 21.34 68.97 .05 28.66-9.24 53.49-21.35 71.71 -12.46 18.72-28.56 34.18-48.73 44.34 -33.71 16.97-80.82 17.43-111.68 1.09 -34.37-18.21-60.79-44.18-70.62-89.24 -3.94-18.03-4.39-41.33 1.09-61.32 1.28-4.69 3.62-9.63 5.47-14.24C18.83 57 33.96 37.74 52.63 24.41c7.5-5.36 16.6-10.68 24.63-14.24 9.99-4.43 26.81-8.83 41.6-9.86v0Z"/><g><path d="M226.21 130.01c0 53.45-43.34 96.78-96.8 96.78 -53.46 0-96.79-43.34-96.79-96.79 0-53.46 43.33-96.8 96.78-96.8s96.79 43.33 96.79 96.79v0Z"/><path d="M118.92.37c56.56-3.93 94.06 23.75 115.5 57.48 10.75 16.9 21.3 42.58 21.34 68.97 .05 28.66-9.24 53.49-21.35 71.71 -12.46 18.72-28.56 34.18-48.73 44.34 -33.71 16.97-80.82 17.43-111.68 1.09 -34.37-18.21-60.79-44.18-70.62-89.24 -3.94-18.03-4.39-41.33 1.09-61.32 1.28-4.69 3.62-9.63 5.47-14.24C18.83 57 33.96 37.74 52.63 24.41c7.5-5.36 16.6-10.68 24.63-14.24 9.99-4.43 26.81-8.83 41.6-9.86v0Zm-19.17 9.3c-21.01 5.44-36.42 15.2-49.82 25.72C30.6 50.56 18.28 71.74 11.06 97.24c-8.04 28.37-2.88 62.71 8.21 84.3 11.49 22.38 26.92 39.76 48.72 52 21.2 11.9 51.02 19.55 82.11 13.68 27.62-5.22 48.6-17.25 65.69-35.04 22.86-23.81 41.24-67.65 29.01-113.87 -3.27-12.36-7.55-25.24-14.24-36.14 -3.62-5.89-8.92-11.69-14.24-17.52 -20.06-22.03-52.48-41.01-94.16-38.33 -7.94.51-14.91 1.32-22.45 3.28v0Z"/></g><g transform="translate(7.68 9.38667)"><g transform="translate(0 2.98667)"><g fill="#FFF"><path d="M127.89 234.02l111.84-111.85 -.61-.61L127.27 233.4l.6.6v0Z"/><path d="M118.11 225.16l112.33-112.34 -.61-.61 -112.34 112.33 .6.6v0Z"/><path d="M108.34 216.31l112.82-112.83 -.61-.61 -112.83 112.82 .6.6v0Z"/><path d="M98.56 207.45l113.3-113.31 -.61-.61 -113.31 113.3 .6.6v0Z"/><path d="M88.78 198.59l113.79-113.8 -.61-.61 -113.8 113.79 .6.6v0Z"/><path d="M79 189.74L193.28 75.45l-.61-.61L78.38 189.12l.6.6v0Z"/><path d="M69.22 180.88L183.99 66.1l-.61-.61L68.6 180.26l.6.6v0Z"/><path d="M59.45 172.02L174.71 56.75l-.61-.61L58.83 171.4l.6.6v0Z"/><path d="M49.67 163.16L165.41 47.41l-.61-.61L49.05 162.54l.6.6v0Z"/><path d="M39.89 154.31L156.12 38.07l-.61-.61L39.27 153.69l.6.6v0Z"/><path d="M30.11 145.45L146.83 28.72l-.61-.61L29.49 144.83l.6.6v0Z"/><path d="M20.34 136.59L137.55 19.37l-.61-.61L19.72 135.97l.6.6v0Z"/><path d="M10.56 127.73l117.7-117.71 -.61-.61L9.94 127.11l.6.6v0Z"/><path d="M.78 118.88L118.97.69l-.61-.61L.16 118.26l.6.6v0Z"/></g></g><g fill="#FFF"><path d="M.14 122.99l114.08 114.08 .6-.61L.73 122.37l-.61.6v0Z"/><path d="M9.39 113.61l114.3 114.3 .6-.61L9.98 112.99l-.61.6v0Z"/><path d="M18.64 104.23l114.52 114.52 .6-.61L19.23 103.61l-.61.6v0Z"/><path d="M27.89 94.84l114.74 114.75 .6-.61L28.48 94.22l-.61.6v0Z"/><path d="M37.14 85.46L152.1 200.43l.6-.61L37.73 84.84l-.61.6v0Z"/><path d="M46.39 76.08l115.19 115.19 .6-.61 -115.2-115.2 -.61.6v0Z"/><path d="M55.65 66.69L171.06 182.1l.6-.61L56.24 66.07l-.61.6v0Z"/><path d="M64.9 57.31l115.63 115.63 .6-.61L65.49 56.69l-.61.6v0Z"/><path d="M74.15 47.92L190 163.78l.6-.61L74.74 47.3l-.61.6v0Z"/><path d="M83.4 38.54l116.07 116.08 .6-.61L83.99 37.92l-.61.6v0Z"/><path d="M92.65 29.16l116.3 116.3 .6-.61L93.24 28.54l-.61.6v0Z"/><path d="M101.9 19.77l116.52 116.52 .6-.61L102.49 19.15l-.61.6v0Z"/><path d="M111.15 10.39l116.74 116.74 .6-.61L111.74 9.77l-.61.6v0Z"/><path d="M120.41 1.01l116.96 116.96 .6-.61L121 .39l-.61.6v0Z"/></g></g><path d="M209.79 45.26c-10.07-10.07-22.45-19.14-37.23-24.64 -15.33-5.7-32.66-10.51-53.11-8.76 -32.57 2.77-55.44 17.38-72.81 34.48 -12.18 11.97-21.33 26.65-27.38 43.79 -8.88 25.16-8.34 54.86 1.64 80.47 8.51 21.83 22.44 39.45 42.15 53.1 18.53 12.82 45.12 22.77 74.99 20.25 36.38-3.08 63-21.74 80.47-43.25 4.46-5.51 8.91-11.73 11.49-19.16 2.52-5.36 3.76-9.01 4.92-10.95 4.85-10.88 7.42-22.35 8.21-35.04 2.42-39.04-12.6-69.53-33.4-90.33v0Zm-10.73 118.93c-.07.14-.14.28-.21.43 -1.81 5.16-4.92 9.48-8.04 13.3 -12.22 14.93-30.84 27.89-56.28 30.03 -20.9 1.75-39.49-5.16-52.45-14.07 -11.27-7.75-19.83-17.33-25.83-28.84 -.37-.7-3.86-8.73-3.87-9.08 -4.76-14.75-5.17-38.47-.29-52.7 3.25-9.5 8.68-19.78 15.87-27.92 9.92-11.25 19.86-18.45 35.58-23.54 7.17-2.33 13.6-4.7 22.44-4.93 21.55-.58 43.5 9.1 55.29 19.7 10.83 9.74 23.17 28.72 26.27 46.53 3.19 18.32-.22 36.22-8.54 51.05v0Z"/><g transform="translate(83.6267 76.3733)"><path fill="#FFF" d="M77.98 105.4c-5.31 0-9.97-3.37-11.6-8.37l-5.92-18.02H30.88l-5.5 17.84c-1.66 5.1-6.36 8.51-11.69 8.51 -1.29 0-2.56-.21-3.79-.61 -6.38-1.92-10-8.78-8.05-15.3l24.96-79.08c1.62-5.03 6.39-8.54 11.6-8.54h13.27c5.24 0 10.01 3.44 11.6 8.38l26.25 79.04c2.09 6.46-1.38 13.39-7.75 15.47 -1.26.4-2.57.61-3.88.61v0 0Z"/><path d="M77.98 103.69c-4.76 0-8.93-3.01-10.38-7.48l-5.92-18.02 -.29-.89h-.93 -29.58 -.95l-.28.9 -5.5 17.84c-1.48 4.55-5.69 7.61-10.47 7.61 -1.15 0-2.29-.19-3.39-.54 -5.73-1.72-8.97-7.87-7.22-13.71l24.95-79.06c1.44-4.5 5.72-7.65 10.38-7.65h13.27c4.68-.001 8.96 3.09 10.38 7.49L88.3 89.23c1.87 5.78-1.24 11.99-6.93 13.85 -1.14.36-2.3.55-3.48.55v0Zm0 2.56c1.44 0 2.87-.23 4.26-.68 7.04-2.3 10.88-9.96 8.56-17.09L64.54 9.43C62.78 3.97 57.51.16 51.72.16H38.44c-5.78 0-11.04 3.87-12.83 9.42L.64 88.65c-2.16 7.19 1.83 14.78 8.89 16.9 1.32.43 2.73.65 4.14.65 5.89 0 11.07-3.78 12.9-9.4l5.49-17.87 -1.23.9H60.4l-1.22-.89 5.91 18.01c1.79 5.52 6.94 9.24 12.8 9.24v0Z"/></g><g transform="translate(61.44 19.2)"><g fill="#FFF"><path d="M2.13 33.85l-.04-.05c-3.12-4.27-2.2-10.24 2.38-13.59 4.58-3.35 10.47-2.41 13.58 1.85l.03.04c3.11 4.26 2.19 10.23-2.39 13.58 -4.59 3.34-10.48 2.4-13.59-1.86v0Zm11.8-8.62l-.04-.05c-1.57-2.15-4.48-2.89-6.75-1.23 -2.25 1.64-2.43 4.56-.87 6.71l.03.04c1.56 2.14 4.47 2.88 6.72 1.23 2.27-1.66 2.44-4.59.88-6.73v0Z"/><path d="M32.14 5.89l4.67-1.51 13.11 15.24 -5.21 1.66 -2.28-2.72 -6.76 2.16 -.25 3.52 -5.11 1.63L32.1 5.83v0Zm7.69 9.36l-3.55-4.36 -.38 5.61 3.92-1.27v0Z"/><path d="M58.36 10.48L58.4.15l5.17.02 -.05 10.22c-.02 2.65 1.32 3.92 3.37 3.92 2.04 0 3.39-1.2 3.4-3.78L70.33.17l5.17.02 -.05 10.19c-.03 5.93-3.43 8.52-8.66 8.5 -5.23-.03-8.51-2.69-8.48-8.45v0Z"/><path d="M94.23 8.67l-5.28-1.62 1.3-4.28 15.42 4.7 -1.31 4.27 -5.28-1.62 -4.07 13.31 -4.88-1.49 4.06-13.32v0Z"/><path d="M119.47 13.46l4.24 2.82 -3.82 5.73 5.44 3.62 3.81-5.74 4.24 2.82 -10.2 15.31 -4.25-2.83 3.87-5.82 -5.45-3.63 -3.88 5.81 -4.25-2.83 10.19-15.32v0Z"/></g></g><g transform="translate(65.28 196.267)"><g fill="#FFF"><path d="M130.62 3.79l.03.04c3.27 4.14 2.58 10.14-1.87 13.66 -4.46 3.51-10.38 2.8-13.65-1.34l-.04-.05c-3.28-4.15-2.59-10.15 1.86-13.67 4.45-3.52 10.37-2.81 13.64 1.33v0Zm-11.47 9.05l.03.04c1.64 2.08 4.58 2.7 6.78.96 2.18-1.73 2.24-4.66.6-6.74l-.04-.05c-1.65-2.09-4.59-2.71-6.77-.99 -2.21 1.74-2.27 4.67-.63 6.75v0Z"/><path d="M101.84 32.93l-4.61 1.7 -13.78-14.66 5.12-1.9 2.39 2.61 6.65-2.47 .09-3.54 5.02-1.87 -.92 20.09v0Zm-8.11-9.03l3.73 4.192 .13-5.63 -3.87 1.43v0Z"/><path d="M75.47 29.43l.45 10.31 -5.18.22 -.46-10.22c-.12-2.66-1.52-3.86-3.56-3.77 -2.05.09-3.34 1.35-3.22 3.92l.45 10.34 -5.18.22 -.45-10.19c-.27-5.94 3-8.69 8.23-8.92 5.22-.24 8.62 2.27 8.87 8.02v0Z"/><path d="M39.53 32.8l5.32 1.43 -1.17 4.31 -15.58-4.21 1.16-4.32 5.32 1.43 3.62-13.45 4.92 1.32 -3.63 13.44v0Z"/><path d="M14.35 29.05l-4.38-2.63 3.53-5.91 -5.62-3.37 -3.54 5.9 -4.38-2.63L9.41 4.63l4.37 2.62 -3.6 5.99 5.61 3.36 3.59-6 4.37 2.62 -9.46 15.77v0Z"/></g></g></svg>
